X: 21342
M: 6/8
L: 1/8
K: D
V: 1 name="2"
dff fed | agf fed | cde ABc | dfa gfe |\
ded fed | agf fed | cde ABc | d3 d2 H|]
a |\
age efg | afd dcd | ecA ABc | dfa e2a |\
agf efg | afd dcd | ecA ABc | d2f "^D.C."d2 |]
E |\


